X: 10
T:Gan Ainm
R:Jig
M:6/8
D:Private tape
S:Michael O'Raihillaigh (concertina)
Z:Bernie Stocks
K:G
GBd G2B | dBG dBG | cBc EFG | AdG FAD | GBd gfg | dBG dBG | cBc DFA | AGF G3 ::
BAB GBd | gfg dBG | cBc EFG | AdG FAD | (3BcdB GBd | gfa dBG | cBc DFA | AGF G3 ::
g2g dBd | GBd gfg | a2e e^ce | A^ce afe | g2f faf | gdB GAB | cec DFA | AGF G3 :|
<end>
<start>
